public/assets/logo.svg

<svg width="28" height="24" viewBox="0 0 28 24" fill="none" xmlns="http://www.w3.org/2000/svg">
<path d="M3.18595 9.23478C1.8487 6.89136 2.58741 3.92689 4.83591 2.61345C7.0844 1.30002 9.99122 2.13499 11.3285 4.47841L17.1985 14.7652C18.5358 17.1086 17.797 20.0731 15.5485 21.3865C13.3001 22.6999 10.3932 21.865 9.05598 19.5215L3.18595 9.23478Z" fill="url(#paint0_linear_2290_2172)"/>
<path d="M27.2349 6.6917C27.2349 9.32347 25.1345 11.4569 22.5435 11.4569C19.9525 11.4569 17.8521 9.32347 17.8521 6.6917C17.8521 4.05992 19.9525 1.92645 22.5435 1.92645C25.1345 1.92645 27.2349 4.05992 27.2349 6.6917Z" fill="url(#paint1_linear_2290_2172)"/>
<defs>
<linearGradient id="paint0_linear_2290_2172" x1="4.83591" y1="2.61345" x2="15.441" y2="21.0019" gradientUnits="userSpaceOnUse">
<stop stop-color="#1DC071"/>
<stop offset="1" stop-color="#77D9AA"/>
</linearGradient>
<linearGradient id="paint1_linear_2290_2172" x1="22.5435" y1="1.92645" x2="22.5205" y2="11.2863" gradientUnits="userSpaceOnUse">
<stop stop-color="#1DC071"/>
<stop offset="1" stop-color="#77D9AA"/>
</linearGradient>
</defs>
</svg>

<svg width="28" height="24" fill="none" xmlns="http://www.w3.org/2000/svg"><path d="M3.186 9.235c-1.337-2.344-.599-5.308 1.65-6.622C7.084 1.3 9.99 2.135 11.328 4.478l5.87 10.287c1.338 2.344.599 5.308-1.65 6.622-2.248 1.313-5.155.478-6.492-1.866L3.186 9.236Z" fill="url(#a)"/><path d="M27.235 6.692c0 2.631-2.1 4.765-4.691 4.765-2.591 0-4.692-2.134-4.692-4.765 0-2.632 2.1-4.766 4.692-4.766 2.59 0 4.69 2.134 4.69 4.766Z" fill="url(#b)"/><defs><linearGradient id="a" x1="4.836" y1="2.613" x2="15.441" y2="21.002" gradientUnits="userSpaceOnUse"><stop stop-color="#1DC071"/><stop offset="1" stop-color="#77D9AA"/></linearGradient><linearGradient id="b" x1="22.544" y1="1.926" x2="22.52" y2="11.286" gradientUnits="userSpaceOnUse"><stop stop-color="#1DC071"/><stop offset="1" stop-color="#77D9AA"/></linearGradient></defs></svg>
